src/images/svg/symbols/markets-stocks-and-indices/european-indices/swiss-20.svg

<?xml version="1.0" encoding="UTF-8"?>
<svg width="32px" height="32px" viewBox="0 0 32 32" version="1.1" xmlns="http://www.w3.org/2000/svg" xmlns:xlink="http://www.w3.org/1999/xlink">
    <title>Swiss 20</title>
    <g id="Markets-to-trade" stroke="none" stroke-width="1" fill="none" fill-rule="evenodd">
        <g id="Markets-to-trade---stock-indices---options" transform="translate(-470.000000, -2671.000000)">
            <g id="Stock-Indices-trades-available-on-Deriv" transform="translate(0.000000, 1273.000000)">
                <g id="Instruments-available" transform="translate(324.000000, 1035.000000)">
                    <g id="Europe" transform="translate(0.000000, 290.000000)">
                        <g id="content" transform="translate(146.000000, 25.000000)">
                            <g id="flag" transform="translate(0.000000, 48.000000)">
                                <rect id="bg" x="0" y="0" width="32" height="32"></rect>
                                <g id="flage" transform="translate(4.000000, 2.000000)">
                                    <g id="Group" transform="translate(0.000000, 6.000000)" fill-rule="nonzero">
                                        <g transform="translate(-0.000000, -0.000000)">
                                            <rect id="bg" fill="#F44336" x="4.99999828e-08" y="0" width="24" height="16" rx="2"></rect>
                                            <path d="M16.5517032,6.31857146 L13.6551564,6.31857146 L13.6551564,3.37604763 C13.6551564,3.14390477 13.4698595,2.95566668 13.2413439,2.95566668 L10.7585625,2.95566668 C10.5300469,2.95566668 10.34475,3.14390477 10.34475,3.37604763 L10.34475,6.31857146 L7.44820316,6.31857146 C7.21968753,6.31857146 7.03439066,6.50680955 7.03439066,6.73895241 L7.03439066,9.2611429 C7.03439066,9.49328575 7.21968753,9.68152385 7.44820316,9.68152385 L10.34475,9.68152385 L10.34475,12.6240477 C10.34475,12.8561906 10.5300469,13.0444287 10.7585625,13.0444287 L13.2413439,13.0444287 C13.4698595,13.0444287 13.6551564,12.8561906 13.6551564,12.6240477 L13.6551564,9.68142861 L16.5517032,9.68142861 C16.7802189,9.68142861 16.9655157,9.49319052 16.9655157,9.26104766 L16.9655157,6.73885717 C16.9655157,6.50676193 16.7802189,6.31857146 16.5517032,6.31857146 Z" id="white" fill="#FFFFFF"></path>
                                            <rect id="border" stroke-opacity="0.04" stroke="#000000" x="0.50000005" y="0.5" width="23" height="15" rx="1"></rect>
                                        </g>
                                    </g>
                                    <g id="badge" transform="translate(15.000000, 0.000000)">
                                        <rect id="bg" fill="#0E0E0E" x="0" y="0" width="11" height="8" rx="1"></rect>
                                        <path d="M5.098,6 L5.098,5.556 L2.896,5.556 L4.024,4.542 C4.156,4.422 4.279,4.302 4.393,4.182 C4.507,4.062 4.604,3.939 4.684,3.813 C4.764,3.687 4.827,3.554 4.873,3.414 C4.919,3.274 4.942,3.122 4.942,2.958 C4.942,2.778 4.913,2.614 4.855,2.466 C4.797,2.318 4.714,2.19 4.606,2.082 C4.498,1.974 4.364,1.89 4.204,1.83 C4.044,1.77 3.862,1.74 3.658,1.74 C3.454,1.74 3.277,1.768 3.127,1.824 C2.977,1.88 2.849,1.954 2.743,2.046 C2.637,2.138 2.549,2.243 2.479,2.361 C2.409,2.479 2.354,2.6 2.314,2.724 L2.314,2.724 L2.764,2.898 C2.792,2.798 2.829,2.705 2.875,2.619 C2.921,2.533 2.979,2.458 3.049,2.394 C3.119,2.33 3.202,2.28 3.298,2.244 C3.394,2.208 3.506,2.19 3.634,2.19 C3.894,2.19 4.088,2.262 4.216,2.406 C4.344,2.55 4.408,2.738 4.408,2.97 L4.408,2.97 L4.408,3.042 C4.408,3.246 4.342,3.449 4.21,3.651 C4.078,3.853 3.914,4.044 3.718,4.224 L3.718,4.224 L2.35,5.484 L2.35,6 L5.098,6 Z M7.3,6.072 C7.8,6.072 8.165,5.882 8.395,5.502 C8.625,5.122 8.74,4.59 8.74,3.906 C8.74,3.222 8.625,2.69 8.395,2.31 C8.165,1.93 7.8,1.74 7.3,1.74 C6.8,1.74 6.435,1.93 6.205,2.31 C5.975,2.69 5.86,3.222 5.86,3.906 C5.86,4.59 5.975,5.122 6.205,5.502 C6.435,5.882 6.8,6.072 7.3,6.072 Z M7.3,5.634 C7.136,5.634 6.996,5.6 6.88,5.532 C6.764,5.464 6.67,5.368 6.598,5.244 C6.526,5.12 6.473,4.974 6.439,4.806 C6.405,4.638 6.388,4.452 6.388,4.248 L6.388,4.248 L6.388,3.564 C6.388,3.36 6.405,3.174 6.439,3.006 C6.473,2.838 6.526,2.692 6.598,2.568 C6.67,2.444 6.764,2.348 6.88,2.28 C6.996,2.212 7.136,2.178 7.3,2.178 C7.464,2.178 7.604,2.212 7.72,2.28 C7.836,2.348 7.93,2.444 8.002,2.568 C8.074,2.692 8.127,2.838 8.161,3.006 C8.195,3.174 8.212,3.36 8.212,3.564 L8.212,3.564 L8.212,4.248 C8.212,4.452 8.195,4.638 8.161,4.806 C8.127,4.974 8.074,5.12 8.002,5.244 C7.93,5.368 7.836,5.464 7.72,5.532 C7.604,5.6 7.464,5.634 7.3,5.634 Z" id="20" fill="#FFFFFF" fill-rule="nonzero"></path>
                                    </g>
                                </g>
                            </g>
                        </g>
                    </g>
                </g>
            </g>
        </g>
    </g>
</svg>

<svg width="32" height="32" xmlns="http://www.w3.org/2000/svg"><g fill="none" fill-rule="evenodd"><path d="M0 0h32v32H0z"/><g transform="translate(4 8)" fill-rule="nonzero"><rect fill="#F44336" width="24" height="16" rx="2"/><path d="M16.552 6.319h-2.897V3.376a.417.417 0 0 0-.414-.42H10.76a.417.417 0 0 0-.414.42v2.943H7.448a.417.417 0 0 0-.414.42v2.522c0 .232.186.42.414.42h2.897v2.943c0 .232.185.42.414.42h2.482a.417.417 0 0 0 .414-.42V9.681h2.897a.417.417 0 0 0 .414-.42V6.739a.417.417 0 0 0-.414-.42z" fill="#FFF"/><rect stroke-opacity=".04" stroke="#000" x=".5" y=".5" width="23" height="15" rx="1"/></g><g transform="translate(19 2)"><rect fill="#0E0E0E" width="11" height="8" rx="1"/><path d="M5.098 6v-.444H2.896l1.128-1.014c.132-.12.255-.24.369-.36.114-.12.211-.243.291-.369.08-.126.143-.259.189-.399.046-.14.069-.292.069-.456 0-.18-.029-.344-.087-.492a1.108 1.108 0 0 0-.249-.384 1.11 1.11 0 0 0-.402-.252c-.16-.06-.342-.09-.546-.09-.204 0-.381.028-.531.084a1.242 1.242 0 0 0-.648.537c-.07.118-.125.239-.165.363l.45.174c.028-.1.065-.193.111-.279a.837.837 0 0 1 .174-.225.76.76 0 0 1 .249-.15.955.955 0 0 1 .336-.054c.26 0 .454.072.582.216.128.144.192.332.192.564v.072c0 .204-.066.407-.198.609a3.033 3.033 0 0 1-.492.573L2.35 5.484V6h2.748zm2.202.072c.5 0 .865-.19 1.095-.57.23-.38.345-.912.345-1.596S8.625 2.69 8.395 2.31c-.23-.38-.595-.57-1.095-.57s-.865.19-1.095.57c-.23.38-.345.912-.345 1.596s.115 1.216.345 1.596c.23.38.595.57 1.095.57zm0-.438a.817.817 0 0 1-.42-.102.78.78 0 0 1-.282-.288 1.433 1.433 0 0 1-.159-.438 2.82 2.82 0 0 1-.051-.558v-.684c0-.204.017-.39.051-.558.034-.168.087-.314.159-.438a.78.78 0 0 1 .282-.288.817.817 0 0 1 .42-.102c.164 0 .304.034.42.102a.78.78 0 0 1 .282.288c.072.124.125.27.159.438.034.168.051.354.051.558v.684c0 .204-.017.39-.051.558a1.433 1.433 0 0 1-.159.438.78.78 0 0 1-.282.288.817.817 0 0 1-.42.102z" fill="#FFF" fill-rule="nonzero"/></g></g></svg>
